X: 15222
T: Giorta Arden
R: polka
M: 2/4
K: Amajor
|:"A" .e2 A2|AB cd|.e2 .e2|A2 a2|g2 e2|cd e2|1 "E" cd cB|cB A2:|2 "E" cd cB|"A" A2 DE||
"Dm" =F2 A2|=c2 B2|B=c dB|A2 DE|=F2 AB|=cB cA|"A" AB =c2|d4|
"Dm" D2 A2|=c2 B2|B=c dB|A2 DE|=F2 AB|=cB cA|"E" AB =cA|B=c d2||

